X: 89
T: The boys of the town
C: anon.
O: Ireland
B: Francis O'Neill: "The Dance Music of Ireland" (1907) no. 89
R: Double jig
Z: Transcribed by Frank Nordberg - http://www.musicaviva.com
F: http://www.musicaviva.com/abc/tunes/ireland/oneill-1001/oneill-1001-008
9.abc
M: 6/8
L: 1/8
K: G
D|GFG GBd|edB dBA|GFG GBd|edB AFD|GFG GBd|edB gfg|edB AGA|BGG G2::B|def g
fg|
afd efB|def gfg|afd e2d|[1 def gfg|afd efg|edB AGA|BGG G2B:|[2 def gbb|fa
a efg|edB AGA|BGG G2|]
W:
W:
W: From Musica Viva - http://www.musicaviva.com
W: the Internet center for free sheet music downloads.


